Sources/FrostedUI/Resources/Icons.xcassets/bold32.imageset/bold-32.svg

<svg width="32" height="32" viewBox="0 0 32 32" fill="none" xmlns="http://www.w3.org/2000/svg" data-fui-icon="true">
  <path
    d="M17.6689 4.25C21.0285 4.25 23.7528 6.97342 23.7529 10.333V10.667C23.7528 12.7266 22.7274 14.545 21.1611 15.6455C23.4551 16.5164 25.0858 18.7337 25.0859 21.333V21.667C25.0858 25.0265 22.3625 27.75 19.0029 27.75H8.98926C7.83892 27.7498 6.90643 26.8174 6.90625 25.667V6.33301C6.90643 5.18268 7.83891 4.25018 8.98926 4.25H17.6689ZM8.40625 25.667C8.40643 25.9889 8.66734 26.2498 8.98926 26.25H19.0029C21.5341 26.25 23.5858 24.1981 23.5859 21.667V21.333C23.5858 18.8019 21.5341 16.75 19.0029 16.75H8.40625V25.667ZM8.98926 5.75C8.66735 5.75018 8.40643 6.0111 8.40625 6.33301V15.25H17.6689C20.2001 15.25 22.2528 13.1981 22.2529 10.667V10.333C22.2528 7.80186 20.2001 5.75 17.6689 5.75H8.98926Z"
    fill="currentColor"
  />
</svg>

<svg xmlns="http://www.w3.org/2000/svg" width="32" height="32" fill="none" data-fui-icon="true" viewBox="0 0 32 32"><path fill="currentColor" d="M17.669 4.25a6.084 6.084 0 0 1 6.084 6.083v.334a6.07 6.07 0 0 1-2.592 4.979 6.08 6.08 0 0 1 3.925 5.687v.334a6.083 6.083 0 0 1-6.083 6.083H8.989a2.083 2.083 0 0 1-2.083-2.083V6.333c0-1.15.933-2.083 2.083-2.083zM8.406 25.667c0 .322.261.583.583.583h10.014a4.583 4.583 0 0 0 4.583-4.583v-.334a4.583 4.583 0 0 0-4.583-4.583H8.406zM8.99 5.75a.583.583 0 0 0-.583.583v8.917h9.263a4.584 4.584 0 0 0 4.584-4.583v-.334a4.584 4.584 0 0 0-4.584-4.583z"/></svg>
